X:134
T:J H Ware's Quickstep
S:American Veteran Fifer #134
C:To J.H. Ware El Paso Tex. Drummer Co. E.114th Pa. by A.F. Hopkins
M:6/8
L:1/8
Q:1/8=300
K:D 
%%MIDI program 72
%%MIDI transpose 8
%%MIDI ratio 3 1
A2d ded | c2B A2A | Beg Ace | dfA d3 |
[1 Ace efe | ede a3 | Acd ded | fef a3 :|
[2 B2c edB | Adf a3 | gec ABc | d3 d3 |
|: a3 a3 | a^ga f3 | f3 fef | efA d3 |
f3 fed | cef g3 |[1 g3 gfg | efg a3 :|[2 fag ecA | d3 d3  |



